X:11
T:I Am A Rich Widow
%%score 1 { 2 | ( 3 4 ) }
L:1/4
Q:1/4=100
M:3/4
I:linebreak $
K:G
V:1 treble nm="Violin"
V:2 treble nm="Piano"
V:3 bass 
V:4 bass 
V:1
D/ | G G A | B B A | G G E | D2 D | G G A | B B c | d d e | d3 |$ G G A | B B A | G G E | D3 | 
w: I|am a rich|wid- ow, I|live all a-|lone; I|have but one|daugh- ter, And|she is my|own,|Daugh- ter, oh,|daugh- ter, Go|choose you a|man,|
G G A | B d G | B/A/ G/ z/ z/ D/ |$ G G A | B B A | G G E | D2 D | G G A | B B c | d d e |$ d3 | 
w: Choose you a|good one, Or|else choose none. I've|married off my|daugh- ter, I've|given her a-|way, I've|married off my|daugh- ter, She's|bound to o-|bey,|
G G A | B B A | G G E | D3 | G G A | B d G | B/A/ G/ z/ z |] 
w: Bound to o-|bey and she'll|never dis- a-|gree,|So as we|go'round kiss her|one,two, * THREE!|
V:2
D/ | [DG] [DG] [CFA] | B [B,GB] [CFA] | G [CG] [CE] | [B,D]2 D | G [B,G] [CFA] | B [B,GB] [DFc] | 
d [DGd] [EGe] | d [DG] [DG] |$ G [B,G] [CFA] | B [B,GB] [CFA] | G [CG] [CE] | [B,D]3 | 
G [B,G] [CFA] | B [DBd] [DG] | [DGB]/[CFA]/ [B,G]/ z/ z |$ [DG] [DG] [CFA] | B [B,GB] [CFA] | 
G [CG] [CE] | [B,D]2 D | G [B,G] [CFA] | B [B,GB] [DFc] | d [DGd] [EGe] |$ d [DG] [DG] | 
G [B,G] [CFA] | B [B,GB] [CFA] | G [CG] [CE] | [B,D]3 | G [B,G] [CFA] | B [DBd] [DG] | 
[DGB]/[CFA]/ [B,G]/ z/ z |] 
V:3
z/ | z D, D, | z D, D, | z E, F, | G, D, B,, | z D, D, | z D, z | z G, G, | z G, G, |$ G,, D, D, | 
G,, D, D, | G,, E, F, | G, D, B,, | G,, D, D, | G,, D, B,, | D,/D,,/ [G,,D,]/ z/ z |$ z D, D, | 
z D, D, | z E, F, | G, D, B,, | z D, D, | z D, z | z G, G, |$ z G, G, | G,, D, D, | G,, D, D, | 
G,, E, F, | G, D, B,, | G,, D, D, | G,, D, B,, | D,/D,,/ [G,,D,]/ z/ z |] 
V:4
x/ | G,,2 z | G,,2 z | G,,3 | x3 | G,,2 z | G,,2 A,, | B,,2 C, | B,,2 z |$ z3 | x3 | x3 | x3 | 
x3 | x3 | x3 |$ G,,2 z | G,,2 z | G,,3 | x3 | G,,2 z | G,,2 A,, | B,,2 C, |$ B,,2 z | z3 | x3 | 
x3 | x3 | x3 | x3 | x3 |] 



